dist/img/profit/autorenew.svg

<svg width="24" height="34" fill="none" xmlns="http://www.w3.org/2000/svg"><path d="M12 8v4.5l6-6-6-6V5C5.37 5 0 10.37 0 17c0 2.355.69 4.545 1.86 6.39l2.19-2.19A8.806 8.806 0 0 1 3 17c0-4.965 4.035-9 9-9Zm10.14 2.61-2.19 2.19A9.027 9.027 0 0 1 21 17c0 4.965-4.035 9-9 9v-4.5l-6 6 6 6V29c6.63 0 12-5.37 12-12 0-2.355-.69-4.545-1.86-6.39Z" fill="url(#a)"/><defs><linearGradient id="a" x1="-2.756" y1="39.239" x2="28.576" y2="38.204" gradientUnits="userSpaceOnUse"><stop stop-color="#2E00B1"/><stop offset=".484" stop-color="#8100BD"/><stop offset="1" stop-color="#A400BE"/></linearGradient></defs></svg>

<svg width="24" height="34" viewBox="0 0 24 34" fill="none" xmlns="http://www.w3.org/2000/svg">
<path d="M12 8V12.5L18 6.5L12 0.5V5C5.37 5 0 10.37 0 17C0 19.355 0.69 21.545 1.86 23.39L4.05 21.2C3.375 19.955 3 18.515 3 17C3 12.035 7.035 8 12 8ZM22.14 10.61L19.95 12.8C20.61 14.06 21 15.485 21 17C21 21.965 16.965 26 12 26V21.5L6 27.5L12 33.5V29C18.63 29 24 23.63 24 17C24 14.645 23.31 12.455 22.14 10.61Z" fill="url(#paint0_linear_70_844)"/>
<defs>
<linearGradient id="paint0_linear_70_844" x1="-2.75598" y1="39.2391" x2="28.576" y2="38.2038" gradientUnits="userSpaceOnUse">
<stop stop-color="#2E00B1"/>
<stop offset="0.484375" stop-color="#8100BD"/>
<stop offset="1" stop-color="#A400BE"/>
</linearGradient>
</defs>
</svg>
